X: 21752
T: THE FAVOURITE HORNPIPE
C: By Wm. Findlay
R: hornpipe
B: K\"ohler's Violin Repository, v.2, 1885 p.175 #2
F: http://www.archive.org/details/klersviolinrepos02rugg
Z: 2012 John Chambers <jc:trillian.mit.edu>
M: C|
L: 1/8
K: A
uE2 |\
(A>G)A>B (A>B)c>d | (e>^d)e>g (a>e)c>A | (f>g)a>g (f>e)d>c | (3BcB (3edc B2E2 |
(A>G)A>B (A>B)c>d | (e>^d)e>g (a>e)c>A | (f>a)g>f (e>d)c>B | A2c2A2 :||: ((3efg) |
a>(ec)>(A f)>(dB)>(G | A)>(ce)>(g a)>(ec)>(A | f)>(ga)>(g f)>(ed)>(c | B)>AG>F E2 ((3efg) |
a>(ec)>(A f)>(dB)>(G | A)>(ce)>(g a)>(ec)>(A | f)>(dg)>(f e)>(dc)>(B | A2)c2A2 :|

%%sep 2 1 500

